; generated by PrusaSlicer 2.4.2+arm64 on 2022-01-14 at 19:39:10 UTC


;
;

;
;
; TODO: check the size of the extruder and the y-bar clearance. Optimize & test supports.

; external perimeters extrusion width = 0.42mm
; perimeters extrusion width = 0.44mm
; infill extrusion width = 0.44mm
; solid infill extrusion width = 0.44mm
; top infill extrusion width = 0.44mm
; support material extrusion width = 0.44mm
; first layer extrusion width = 0.56mm

M107
M190 S55 ; set bed temperature and wait for it to be reached
M104 S223 ; set temperature
;TYPE:Custom
; M190 S0
; M109 S0 ; uncomment to remove set&wait temp gcode added automatically after this start gcode
print_start EXTRUDER=223 BED=55
M109 S223 ; set temperature and wait for it to be reached
G21 ; set units to millimeters
G90 ; use absolute coordinates
M83 ; use relative distances for extrusion
M107
;LAYER_CHANGE
;Z:0.25
;HEIGHT:0.25
;BEFORE_LAYER_CHANGE
;0.25
G92 E0

G1 Z.25 F7200
;AFTER_LAYER_CHANGE
;0.25
G1 E-2 F3000
G1 X72.731 Y45.362 F7200
G1 E2 F1800
M204 S1000
;TYPE:Support material
;WIDTH:0.56
G1 F1200
G1 X72.731 Y70.638 E1.33024
G1 X71.138 Y72.231 E.11859
G1 X45.862 Y72.231 E1.33024
G1 X44.269 Y70.638 E.11859
G1 X44.269 Y45.362 E1.33024
G1 X45.862 Y43.769 E.11859
G1 X71.138 Y43.769 E1.33024
G1 X72.678 Y45.308 E.11459
M204 S3000
G1 E-2 F3000
G1 X44.724 Y70.161 F7200
G1 E2 F1800
M204 S1000
G1 F1200
G1 X44.724 Y70.449 E.01519
G1 X44.997 Y70.722 E.02031
G1 X44.997 Y45.278 E1.3391
G1 X45.56 Y44.715 E.04187
G1 X45.56 Y71.285 E1.39832
G1 X46.051 Y71.776 E.03653
G1 X46.123 Y71.776 E.00378
G1 X46.123 Y44.224 E1.44999
G1 X46.685 Y44.224 E.02961
G1 X46.685 Y71.776 E1.44999
G1 X47.248 Y71.776 E.02961
G1 X47.248 Y44.224 E1.44999
G1 X47.81 Y44.224 E.02961
G1 X47.81 Y71.776 E1.44999
G1 X48.373 Y71.776 E.02961
G1 X48.373 Y44.224 E1.44999
G1 X48.936 Y44.224 E.02961
G1 X48.936 Y71.776 E1.44999
G1 X49.498 Y71.776 E.02961
G1 X49.498 Y44.224 E1.44999
G1 X50.061 Y44.224 E.02961
G1 X50.061 Y71.776 E1.44999
G1 X50.623 Y71.776 E.02961
G1 X50.623 Y44.224 E1.44999
G1 X51.186 Y44.224 E.02961
G1 X51.186 Y71.776 E1.44999
G1 X51.749 Y71.776 E.02961
G1 X51.749 Y44.224 E1.44999
G1 X52.311 Y44.224 E.02961
G1 X52.311 Y71.776 E1.44999
G1 X52.874 Y71.776 E.02961
G1 X52.874 Y44.224 E1.44999
G1 X53.437 Y44.224 E.02961
G1 X53.437 Y71.776 E1.44999
G1 X53.999 Y71.776 E.02961
G1 X53.999 Y44.224 E1.44999
G1 X54.562 Y44.224 E.02961
G1 X54.562 Y71.776 E1.44999
G1 X55.124 Y71.776 E.02961
G1 X55.124 Y44.224 E1.44999
G1 X55.687 Y44.224 E.02961
G1 X55.687 Y71.776 E1.44999
G1 X56.25 Y71.776 E.02961
G1 X56.25 Y44.224 E1.44999
G1 X56.812 Y44.224 E.02961
G1 X56.812 Y71.776 E1.44999
G1 X57.375 Y71.776 E.02961
G1 X57.375 Y44.224 E1.44999
G1 X57.937 Y44.224 E.02961
G1 X57.937 Y71.776 E1.44999
G1 X58.5 Y71.776 E.02961
G1 X58.5 Y44.224 E1.44999
G1 X59.063 Y44.224 E.02961
G1 X59.063 Y71.776 E1.44999
G1 X59.625 Y71.776 E.02961
G1 X59.625 Y44.224 E1.44999
G1 X60.188 Y44.224 E.02961
G1 X60.188 Y71.776 E1.44999
G1 X60.75 Y71.776 E.02961
G1 X60.75 Y44.224 E1.44999
G1 X61.313 Y44.224 E.02961
G1 X61.313 Y71.776 E1.44999
G1 X61.876 Y71.776 E.02961
G1 X61.876 Y44.224 E1.44999
G1 X62.438 Y44.224 E.02961
G1 X62.438 Y71.776 E1.44999
G1 X63.001 Y71.776 E.02961
G1 X63.001 Y44.224 E1.44999
G1 X63.563 Y44.224 E.02961
G1 X63.563 Y71.776 E1.44999
G1 X64.126 Y71.776 E.02961
G1 X64.126 Y44.224 E1.44999
G1 X64.689 Y44.224 E.02961
G1 X64.689 Y71.776 E1.44999
G1 X65.251 Y71.776 E.02961
G1 X65.251 Y44.224 E1.44999
G1 X65.814 Y44.224 E.02961
G1 X65.814 Y71.776 E1.44999
G1 X66.377 Y71.776 E.02961
G1 X66.377 Y44.224 E1.44999
G1 X66.939 Y44.224 E.02961
G1 X66.939 Y71.776 E1.44999
G1 X67.502 Y71.776 E.02961
G1 X67.502 Y44.224 E1.44999
G1 X68.064 Y44.224 E.02961
G1 X68.064 Y71.776 E1.44999
G1 X68.627 Y71.776 E.02961
G1 X68.627 Y44.224 E1.44999
G1 X69.19 Y44.224 E.02961
G1 X69.19 Y71.776 E1.44999
G1 X69.752 Y71.776 E.02961
G1 X69.752 Y44.224 E1.44999
G1 X70.315 Y44.224 E.02961
G1 X70.315 Y71.776 E1.44999
G1 X70.877 Y71.776 E.02961
G1 X70.877 Y44.224 E1.44999
G1 X70.949 Y44.224 E.00378
G1 X71.44 Y44.715 E.03653
G1 X71.44 Y71.285 E1.39832
G1 X72.003 Y70.722 E.04187
G1 X72.003 Y45.278 E1.3391
G1 X72.276 Y45.551 E.02031
G1 X72.276 Y45.839 E.01519
M204 S3000
M106 S255
;LAYER_CHANGE
;Z:0.55
;HEIGHT:0.3
;BEFORE_LAYER_CHANGE
;0.55
G92 E0

G1 Z.55 F7200
;AFTER_LAYER_CHANGE
;0.55
M104 S220 ; set temperature
G1 X70.318 Y46.489
;WIDTH:0.44
G1 F1135
G1 X70.318 Y46.362 E.00595
G1 X70.138 Y46.182 E.01191
G1 X46.862 Y46.182 E1.0905
G1 X46.682 Y46.362 E.01191
G1 X46.682 Y46.682 E.015
G1 X70.318 Y46.682 E1.10734
G1 X70.318 Y48.568 E.08837
G1 X46.682 Y48.568 E1.10734
G1 X46.682 Y50.455 E.08837
G1 X70.318 Y50.455 E1.10734
G1 X70.318 Y52.341 E.08837
G1 X46.682 Y52.341 E1.10734
G1 X46.682 Y54.227 E.08837
G1 X70.318 Y54.227 E1.10734
G1 X70.318 Y56.114 E.08837
G1 X46.682 Y56.114 E1.10734
G1 X46.682 Y58 E.08837
G1 X70.318 Y58 E1.10734
G1 X70.318 Y59.886 E.08837
G1 X46.682 Y59.886 E1.10734
G1 X46.682 Y61.773 E.08837
G1 X70.318 Y61.773 E1.10734
G1 X70.318 Y63.659 E.08837
G1 X46.682 Y63.659 E1.10734
G1 X46.682 Y65.545 E.08837
G1 X70.318 Y65.545 E1.10734
G1 X70.318 Y67.432 E.08837
G1 X46.682 Y67.432 E1.10734
G1 X46.682 Y69.318 E.08837
G1 X70.318 Y69.318 E1.10734
G1 X70.318 Y69.638 E.015
G1 X70.138 Y69.818 E.01191
G1 X46.862 Y69.818 E1.0905
G1 X46.682 Y69.638 E.01191
G1 X46.682 Y69.511 E.00595
;LAYER_CHANGE
;Z:0.85
;HEIGHT:0.3
;BEFORE_LAYER_CHANGE
;0.85
G92 E0

G1 Z.85 F7200
;AFTER_LAYER_CHANGE
;0.85
G1 X46.773 Y69.729
;TYPE:Support material interface
G1 F2974
G1 X46.773 Y46.271 E1.09904
G1 X46.862 Y46.182 E.00587
G1 X47.359 Y46.182 E.02332
G1 X47.359 Y69.818 E1.10734
G1 X47.946 Y69.818 E.02747
G1 X47.946 Y46.182 E1.10734
G1 X48.532 Y46.182 E.02747
G1 X48.532 Y69.818 E1.10734
G1 X49.118 Y69.818 E.02747
G1 X49.118 Y46.182 E1.10734
G1 X49.705 Y46.182 E.02747
G1 X49.705 Y69.818 E1.10734
G1 X50.291 Y69.818 E.02747
G1 X50.291 Y46.182 E1.10734
G1 X50.877 Y46.182 E.02747
G1 X50.877 Y69.818 E1.10734
G1 X51.464 Y69.818 E.02747
G1 X51.464 Y46.182 E1.10734
G1 X52.05 Y46.182 E.02747
G1 X52.05 Y69.818 E1.10734
G1 X52.637 Y69.818 E.02747
G1 X52.637 Y46.182 E1.10734
G1 X53.223 Y46.182 E.02747
G1 X53.223 Y69.818 E1.10734
G1 X53.809 Y69.818 E.02747
G1 X53.809 Y46.182 E1.10734
G1 X54.396 Y46.182 E.02747
G1 X54.396 Y69.818 E1.10734
G1 X54.982 Y69.818 E.02747
G1 X54.982 Y46.182 E1.10734
G1 X55.568 Y46.182 E.02747
G1 X55.568 Y69.818 E1.10734
G1 X56.155 Y69.818 E.02747
G1 X56.155 Y46.182 E1.10734
G1 X56.741 Y46.182 E.02747
G1 X56.741 Y69.818 E1.10734
G1 X57.327 Y69.818 E.02747
G1 X57.327 Y46.182 E1.10734
G1 X57.914 Y46.182 E.02747
G1 X57.914 Y69.818 E1.10734
G1 X58.5 Y69.818 E.02747
G1 X58.5 Y46.182 E1.10734
G1 X59.086 Y46.182 E.02747
G1 X59.086 Y69.818 E1.10734
G1 X59.673 Y69.818 E.02747
G1 X59.673 Y46.182 E1.10734
G1 X60.259 Y46.182 E.02747
G1 X60.259 Y69.818 E1.10734
G1 X60.845 Y69.818 E.02747
G1 X60.845 Y46.182 E1.10734
G1 X61.432 Y46.182 E.02747
G1 X61.432 Y69.818 E1.10734
G1 X62.018 Y69.818 E.02747
G1 X62.018 Y46.182 E1.10734
G1 X62.604 Y46.182 E.02747
G1 X62.604 Y69.818 E1.10734
G1 X63.191 Y69.818 E.02747
G1 X63.191 Y46.182 E1.10734
G1 X63.777 Y46.182 E.02747
G1 X63.777 Y69.818 E1.10734
G1 X64.363 Y69.818 E.02747
G1 X64.363 Y46.182 E1.10734
G1 X64.95 Y46.182 E.02747
G1 X64.95 Y69.818 E1.10734
G1 X65.536 Y69.818 E.02747
G1 X65.536 Y46.182 E1.10734
G1 X66.123 Y46.182 E.02747
G1 X66.123 Y69.818 E1.10734
G1 X66.709 Y69.818 E.02747
G1 X66.709 Y46.182 E1.10734
G1 X67.295 Y46.182 E.02747
G1 X67.295 Y69.818 E1.10734
G1 X67.882 Y69.818 E.02747
G1 X67.882 Y46.182 E1.10734
G1 X68.468 Y46.182 E.02747
G1 X68.468 Y69.818 E1.10734
G1 X69.054 Y69.818 E.02747
G1 X69.054 Y46.182 E1.10734
G1 X69.641 Y46.182 E.02747
G1 X69.641 Y69.818 E1.10734
G1 X70.138 Y69.818 E.02332
G1 X70.227 Y69.729 E.00587
G1 X70.227 Y46.271 E1.09904
;LAYER_CHANGE
;Z:1.15
;HEIGHT:0.3
;BEFORE_LAYER_CHANGE
;1.15
G92 E0

G1 Z1.15 F7200
;AFTER_LAYER_CHANGE
;1.15
G1 X69.641 Y46.682
G1 F2714
G1 X69.641 Y69.318 E1.06049
G1 X69.054 Y69.318 E.02747
G1 X69.054 Y46.682 E1.06049
G1 X68.468 Y46.682 E.02747
G1 X68.468 Y69.318 E1.06049
G1 X67.882 Y69.318 E.02747
G1 X67.882 Y46.682 E1.06049
G1 X67.295 Y46.682 E.02747
G1 X67.295 Y69.318 E1.06049
G1 X66.709 Y69.318 E.02747
G1 X66.709 Y46.682 E1.06049
G1 X66.123 Y46.682 E.02747
G1 X66.123 Y69.318 E1.06049
G1 X65.536 Y69.318 E.02747
G1 X65.536 Y46.682 E1.06049
G1 X64.95 Y46.682 E.02747
G1 X64.95 Y69.318 E1.06049
G1 X64.363 Y69.318 E.02747
G1 X64.363 Y46.682 E1.06049
G1 X63.777 Y46.682 E.02747
G1 X63.777 Y69.318 E1.06049
G1 X63.191 Y69.318 E.02747
G1 X63.191 Y46.682 E1.06049
G1 X62.604 Y46.682 E.02747
G1 X62.604 Y69.318 E1.06049
G1 X62.018 Y69.318 E.02747
G1 X62.018 Y46.682 E1.06049
G1 X61.432 Y46.682 E.02747
G1 X61.432 Y69.318 E1.06049
G1 X60.845 Y69.318 E.02747
G1 X60.845 Y46.682 E1.06049
G1 X60.259 Y46.682 E.02747
G1 X60.259 Y69.318 E1.06049
G1 X59.673 Y69.318 E.02747
G1 X59.673 Y46.682 E1.06049
G1 X59.086 Y46.682 E.02747
G1 X59.086 Y69.318 E1.06049
G1 X58.5 Y69.318 E.02747
G1 X58.5 Y46.682 E1.06049
G1 X57.914 Y46.682 E.02747
G1 X57.914 Y69.318 E1.06049
G1 X57.327 Y69.318 E.02747
G1 X57.327 Y46.682 E1.06049
G1 X56.741 Y46.682 E.02747
G1 X56.741 Y69.318 E1.06049
G1 X56.155 Y69.318 E.02747
G1 X56.155 Y46.682 E1.06049
G1 X55.568 Y46.682 E.02747
G1 X55.568 Y69.318 E1.06049
G1 X54.982 Y69.318 E.02747
G1 X54.982 Y46.682 E1.06049
G1 X54.396 Y46.682 E.02747
G1 X54.396 Y69.318 E1.06049
G1 X53.809 Y69.318 E.02747
G1 X53.809 Y46.682 E1.06049
G1 X53.223 Y46.682 E.02747
G1 X53.223 Y69.318 E1.06049
G1 X52.637 Y69.318 E.02747
G1 X52.637 Y46.682 E1.06049
G1 X52.05 Y46.682 E.02747
G1 X52.05 Y69.318 E1.06049
G1 X51.464 Y69.318 E.02747
G1 X51.464 Y46.682 E1.06049
G1 X50.877 Y46.682 E.02747
G1 X50.877 Y69.318 E1.06049
G1 X50.291 Y69.318 E.02747
G1 X50.291 Y46.682 E1.06049
G1 X49.705 Y46.682 E.02747
G1 X49.705 Y69.318 E1.06049
G1 X49.118 Y69.318 E.02747
G1 X49.118 Y46.682 E1.06049
G1 X48.532 Y46.682 E.02747
G1 X48.532 Y69.318 E1.06049
G1 X47.946 Y69.318 E.02747
G1 X47.946 Y46.682 E1.06049
G1 X47.359 Y46.682 E.02747
G1 X47.359 Y69.318 E1.06049
;LAYER_CHANGE
;Z:1.57
;HEIGHT:0.42
;BEFORE_LAYER_CHANGE
;1.57
G92 E0

G1 Z1.57 F7200
;AFTER_LAYER_CHANGE
;1.57
G1 X49.186 Y67.314
M204 S2500
;TYPE:Perimeter
;HEIGHT:0.25
G1 F1800
G1 X49.186 Y48.686 E.748
G1 X67.814 Y48.686 E.748
G1 X67.814 Y67.314 E.748
G1 X49.246 Y67.314 E.7456
M204 S3000
G1 X48.81 Y67.69 F7200
M204 S2500
;TYPE:External perimeter
;WIDTH:0.42
G1 F1800
G1 X48.81 Y48.31 E.73794
G1 X68.19 Y48.31 E.73794
G1 X68.19 Y67.69 E.73794
G1 X48.87 Y67.69 E.73566
M204 S3000
G1 X48.914 Y67.304 F7200
G1 E-2 F3000
G1 X66.893 Y48.822 F7200
G1 E2 F1800
M204 S4000
;TYPE:Solid infill
;WIDTH:0.441936
G1 X67.505 Y49.433 E.03489
G1 X67.505 Y49.982 E.02216
G1 X66.518 Y48.995 E.05631
G1 X65.969 Y48.995 E.02216
G1 X67.505 Y50.531 E.08765
G1 X67.505 Y51.08 E.02216
G1 X65.42 Y48.995 E.11899
G1 X64.871 Y48.995 E.02216
G1 X67.505 Y51.629 E.15033
G1 X67.505 Y52.178 E.02216
G1 X64.322 Y48.995 E.18167
G1 X63.772 Y48.995 E.02216
G1 X67.505 Y52.728 E.21301
G1 X67.505 Y53.277 E.02216
G1 X63.223 Y48.995 E.24435
G1 X62.674 Y48.995 E.02216
G1 X67.505 Y53.826 E.27569
G1 X67.505 Y54.375 E.02216
G1 X62.125 Y48.995 E.30703
G1 X61.576 Y48.995 E.02216
G1 X67.505 Y54.924 E.33837
G1 X67.505 Y55.473 E.02216
G1 X61.027 Y48.995 E.36971
G1 X60.478 Y48.995 E.02216
G1 X67.505 Y56.022 E.40105
G1 X67.505 Y56.571 E.02216
G1 X59.929 Y48.995 E.43239
G1 X59.38 Y48.995 E.02216
G1 X67.505 Y57.12 E.46373
G1 X67.505 Y57.67 E.02216
G1 X58.83 Y48.995 E.49507
G1 X58.281 Y48.995 E.02216
G1 X67.505 Y58.219 E.52641
G1 X67.505 Y58.768 E.02216
G1 X57.732 Y48.995 E.55775
G1 X57.183 Y48.995 E.02216
G1 X67.505 Y59.317 E.5891
G1 X67.505 Y59.866 E.02216
G1 X56.634 Y48.995 E.62044
G1 X56.085 Y48.995 E.02216
G1 X67.505 Y60.415 E.65178
G1 X67.505 Y60.964 E.02216
G1 X55.536 Y48.995 E.68312
G1 X54.987 Y48.995 E.02216
G1 X67.505 Y61.513 E.71446
G1 X67.505 Y62.063 E.02216
G1 X54.437 Y48.995 E.7458
G1 X53.888 Y48.995 E.02216
G1 X67.505 Y62.612 E.77714
G1 X67.505 Y63.161 E.02216
G1 X53.339 Y48.995 E.80848
G1 X52.79 Y48.995 E.02216
G1 X67.505 Y63.71 E.83982
G1 X67.505 Y64.259 E.02216
G1 X52.241 Y48.995 E.87116
G1 X51.692 Y48.995 E.02216
G1 X67.505 Y64.808 E.9025
G1 X67.505 Y65.357 E.02216
G1 X51.143 Y48.995 E.93384
G1 X50.594 Y48.995 E.02216
G1 X67.505 Y65.906 E.96518
G1 X67.505 Y66.456 E.02216
G1 X50.044 Y48.995 E.99652
G1 X49.495 Y48.995 E.02216
G1 X67.505 Y67.005 E1.02786
G1 X66.955 Y67.005 E.02216
G1 X49.495 Y49.545 E.99652
G1 X49.495 Y50.094 E.02216
G1 X66.406 Y67.005 E.96518
G1 X65.857 Y67.005 E.02216
G1 X49.495 Y50.643 E.93384
G1 X49.495 Y51.192 E.02216
G1 X65.308 Y67.005 E.9025
G1 X64.759 Y67.005 E.02216
G1 X49.495 Y51.741 E.87116
G1 X49.495 Y52.29 E.02216
G1 X64.21 Y67.005 E.83981
G1 X63.661 Y67.005 E.02216
G1 X49.495 Y52.839 E.80847
G1 X49.495 Y53.388 E.02216
G1 X63.112 Y67.005 E.77713
G1 X62.562 Y67.005 E.02216
G1 X49.495 Y53.938 E.74579
G1 X49.495 Y54.487 E.02216
G1 X62.013 Y67.005 E.71445
G1 X61.464 Y67.005 E.02216
G1 X49.495 Y55.036 E.68311
G1 X49.495 Y55.585 E.02216
G1 X60.915 Y67.005 E.65177
G1 X60.366 Y67.005 E.02216
G1 X49.495 Y56.134 E.62043
G1 X49.495 Y56.683 E.02216
G1 X59.817 Y67.005 E.58909
G1 X59.268 Y67.005 E.02216
G1 X49.495 Y57.232 E.55775
G1 X49.495 Y57.781 E.02216
G1 X58.719 Y67.005 E.52641
G1 X58.17 Y67.005 E.02216
G1 X49.495 Y58.33 E.49507
G1 X49.495 Y58.88 E.02216
G1 X57.62 Y67.005 E.46373
G1 X57.071 Y67.005 E.02216
G1 X49.495 Y59.429 E.43239
G1 X49.495 Y59.978 E.02216
G1 X56.522 Y67.005 E.40105
G1 X55.973 Y67.005 E.02216
G1 X49.495 Y60.527 E.36971
G1 X49.495 Y61.076 E.02216
G1 X55.424 Y67.005 E.33836
G1 X54.875 Y67.005 E.02216
G1 X49.495 Y61.625 E.30702
G1 X49.495 Y62.174 E.02216
G1 X54.326 Y67.005 E.27568
G1 X53.777 Y67.005 E.02216
G1 X49.495 Y62.723 E.24434
G1 X49.495 Y63.273 E.02216
G1 X53.227 Y67.005 E.213
G1 X52.678 Y67.005 E.02216
G1 X49.495 Y63.822 E.18166
G1 X49.495 Y64.371 E.02216
G1 X52.129 Y67.005 E.15032
G1 X51.58 Y67.005 E.02216
G1 X49.495 Y64.92 E.11898
G1 X49.495 Y65.469 E.02216
G1 X51.031 Y67.005 E.08764
G1 X50.482 Y67.005 E.02216
G1 X49.495 Y66.018 E.0563
G1 X49.495 Y66.567 E.02216
G1 X50.107 Y67.178 E.03488
M204 S3000
;LAYER_CHANGE
;Z:1.82
;HEIGHT:0.25
;BEFORE_LAYER_CHANGE
;1.82
G92 E0

G1 Z1.82 F7200
;AFTER_LAYER_CHANGE
;1.82
G1 X49.186 Y67.314
M204 S2500
;TYPE:Perimeter
;WIDTH:0.44
G1 F3563
G1 X49.186 Y48.686 E.748
G1 X67.814 Y48.686 E.748
G1 X67.814 Y67.314 E.748
G1 X49.246 Y67.314 E.7456
M204 S3000
G1 X48.81 Y67.69 F7200
M204 S2500
;TYPE:External perimeter
;WIDTH:0.42
G1 F1200
G1 X48.81 Y48.31 E.73794
G1 X68.19 Y48.31 E.73794
G1 X68.19 Y67.69 E.73794
G1 X48.87 Y67.69 E.73566
M204 S3000
G1 X48.914 Y67.304 F7200
G1 X67.678 Y66.393
M204 S4000
;TYPE:Solid infill
;WIDTH:0.441935
G1 F3563
G1 X67.067 Y67.005 E.03489
G1 X66.518 Y67.005 E.02216
G1 X67.505 Y66.018 E.0563
G1 X67.505 Y65.469 E.02216
G1 X65.969 Y67.005 E.08765
G1 X65.42 Y67.005 E.02216
G1 X67.505 Y64.92 E.11899
G1 X67.505 Y64.371 E.02216
G1 X64.871 Y67.005 E.15033
G1 X64.322 Y67.005 E.02216
G1 X67.505 Y63.822 E.18167
G1 X67.505 Y63.272 E.02216
G1 X63.772 Y67.005 E.21301
G1 X63.223 Y67.005 E.02216
G1 X67.505 Y62.723 E.24435
G1 X67.505 Y62.174 E.02216
G1 X62.674 Y67.005 E.27569
G1 X62.125 Y67.005 E.02216
G1 X67.505 Y61.625 E.30703
G1 X67.505 Y61.076 E.02216
G1 X61.576 Y67.005 E.33837
G1 X61.027 Y67.005 E.02216
G1 X67.505 Y60.527 E.36971
G1 X67.505 Y59.978 E.02216
G1 X60.478 Y67.005 E.40105
G1 X59.929 Y67.005 E.02216
G1 X67.505 Y59.429 E.43239
G1 X67.505 Y58.88 E.02216
G1 X59.38 Y67.005 E.46373
G1 X58.83 Y67.005 E.02216
G1 X67.505 Y58.33 E.49507
G1 X67.505 Y57.781 E.02216
G1 X58.281 Y67.005 E.52641
G1 X57.732 Y67.005 E.02216
G1 X67.505 Y57.232 E.55775
G1 X67.505 Y56.683 E.02216
G1 X57.183 Y67.005 E.58909
G1 X56.634 Y67.005 E.02216
G1 X67.505 Y56.134 E.62043
G1 X67.505 Y55.585 E.02216
G1 X56.085 Y67.005 E.65177
G1 X55.536 Y67.005 E.02216
G1 X67.505 Y55.036 E.68311
G1 X67.505 Y54.487 E.02216
G1 X54.987 Y67.005 E.71445
G1 X54.437 Y67.005 E.02216
G1 X67.505 Y53.937 E.74579
G1 X67.505 Y53.388 E.02216
G1 X53.888 Y67.005 E.77714
